X:43
T:Duke of York's March
S:John Moore's Book 1
Z:Transcribed by David Jacobs  April 2021
%%VWML: Moore1-4493-p27-0
F:http://www.vwml.org/record/Moore1/4493/p27
M:C|
L:1/8
K:D
D2 D>DF2 F>F|AFAF D2c2|dAdA dAFD|A2A>AA2z|a2f2d2d2|
e2e>g f2za|a3f (fd)(gf)|e2e>e e2z|:|
|:A2A>A A(efg)|AA>A A(dfa)|(gf)ee (fd)dd|(ba)gf (f2e2)|
(d3f/e/) d(aB=c)| (cB)B4 (c/d/e/f/)|ggff eedd|e2e>e e2z|
D2D>D F2F>F|AFAF D2d2|(fa)(af)gedc|d2d>dd2z:|]

